media/img/firefox/whatsnew/whatsnew144/new-tab-sections-sticker.svg

<svg width="134" height="80" viewBox="0 0 134 80" fill="none" xmlns="http://www.w3.org/2000/svg">
<path d="M3.96696 2.70293L1.23631 8.96698C1.08044 9.32452 1 9.71036 1 10.1004V16.0681L42.5442 9.50905L39.5772 2.70293C39.1264 1.66869 38.1054 1 36.9772 1H6.567C5.43876 1 4.41781 1.66869 3.96696 2.70293Z" fill="#F8F6F4" stroke="#333336" stroke-width="1.6" stroke-linejoin="round"/>
<path d="M1 9.50977H88.2178C89.7843 9.50977 91.0541 10.7796 91.0541 12.3461V59.1459C91.0541 60.7124 89.7843 61.9823 88.2178 61.9823H3.83635C2.26988 61.9823 1 60.7124 1 59.1459V9.50977Z" fill="#F8F6F4" stroke="#333336" stroke-width="1.6" stroke-linecap="round" stroke-linejoin="round"/>
<rect x="9.1543" y="18.6953" width="53.1816" height="6.02725" rx="0.805389" fill="#00A6F9"/>
<rect x="9.1543" y="28.0547" width="73.7451" height="6.02725" rx="0.805389" fill="#00A6F9"/>
<rect x="9.1543" y="37.4121" width="73.7451" height="6.02725" rx="0.805389" fill="#00A6F9"/>
<rect x="9.1543" y="46.7695" width="24.8181" height="6.02725" rx="0.805389" fill="#00A6F9"/>
<path d="M21.5635 18.0188L24.5304 11.2127C24.9813 10.1785 26.0022 9.50977 27.1305 9.50977H57.5407C58.6689 9.50977 59.6899 10.1785 60.1407 11.2127L63.1077 18.0188" stroke="#333336" stroke-width="1.6" stroke-linejoin="round"/>
<path d="M21.5635 18.0195H108.781C110.348 18.0195 111.618 19.2894 111.618 20.8559V67.6557C111.618 69.2222 110.348 70.492 108.781 70.492H24.3998C22.8334 70.492 21.5635 69.2221 21.5635 67.6557V18.0195Z" fill="#F8F6F4" stroke="#333336" stroke-width="1.6" stroke-linecap="round" stroke-linejoin="round"/>
<rect x="29.7178" y="27.2031" width="53.1816" height="6.02725" rx="0.805389" fill="#FFB279"/>
<rect x="29.7178" y="36.5625" width="73.7451" height="6.02725" rx="0.805389" fill="#FFB279"/>
<rect x="29.7178" y="45.9199" width="73.7451" height="6.02725" rx="0.805389" fill="#FFB279"/>
<rect x="29.7178" y="55.2773" width="24.8181" height="6.02725" rx="0.805389" fill="#FFB279"/>
<path d="M42.4814 26.5266L45.4484 19.7205C45.8993 18.6863 46.9202 18.0176 48.0484 18.0176H78.4586C79.5869 18.0176 80.6078 18.6863 81.0587 19.7205L84.0256 26.5266" stroke="#333336" stroke-width="1.6" stroke-linejoin="round"/>
<path d="M42.4814 26.5254H129.699C131.266 26.5254 132.536 27.7953 132.536 29.3617V76.1615C132.536 77.728 131.266 78.9979 129.699 78.9979H45.3178C43.7513 78.9979 42.4814 77.728 42.4814 76.1615V26.5254Z" fill="#F8F6F4" stroke="#333336" stroke-width="1.6" stroke-linecap="round" stroke-linejoin="round"/>
<rect x="50.6357" y="35.7129" width="53.1816" height="6.02725" rx="0.805389" fill="#E0E0E6"/>
<rect x="50.6357" y="45.0703" width="73.7451" height="6.02725" rx="0.805389" fill="#E0E0E6"/>
<rect x="50.6357" y="54.4277" width="73.7451" height="6.02725" rx="0.805389" fill="#E0E0E6"/>
<rect x="50.6357" y="63.7852" width="24.8181" height="6.02725" rx="0.805389" fill="#E0E0E6"/>
<rect x="0.8" y="-0.8" width="38.1034" height="19.4394" rx="9.19581" transform="matrix(1 0 0 -1 67.2998 61.9215)" fill="#F8F6F4" stroke="#333336" stroke-width="1.6"/>
<rect width="15.6099" height="14.9312" rx="7.0938" transform="matrix(1 0 0 -1 72.1738 60.4668)" fill="#00A6F9"/>
<mask id="path-21-inside-1_9495_6942" fill="white">
<path fill-rule="evenodd" clip-rule="evenodd" d="M83.9668 52.9442L76.1051 52.9442L83.9668 52.9442Z"/>
</mask>
<path fill-rule="evenodd" clip-rule="evenodd" d="M83.9668 52.9442L76.1051 52.9442L83.9668 52.9442Z" fill="#00A6F9"/>
<path d="M83.9668 51.9442C84.5191 51.9442 84.9668 52.3919 84.9668 52.9442C84.9668 53.4965 84.5191 53.9442 83.9668 53.9442L83.9668 52.9442L83.9668 51.9442ZM76.1051 53.9442C75.5528 53.9442 75.1051 53.4965 75.1051 52.9442C75.1051 52.3919 75.5528 51.9442 76.1051 51.9442L76.1051 52.9442L76.1051 53.9442ZM83.9668 52.9442L83.9668 53.9442L76.1051 53.9442L76.1051 52.9442L76.1051 51.9442L83.9668 51.9442L83.9668 52.9442Z" fill="#F8F6F4" mask="url(#path-21-inside-1_9495_6942)"/>
<mask id="path-23-inside-2_9495_6942" fill="white">
<path fill-rule="evenodd" clip-rule="evenodd" d="M80.0361 56.875L80.0361 49.0133L80.0361 56.875Z"/>
</mask>
<path fill-rule="evenodd" clip-rule="evenodd" d="M80.0361 56.875L80.0361 49.0133L80.0361 56.875Z" fill="#00A6F9"/>
<path d="M81.0361 56.875C81.0361 57.4273 80.5884 57.875 80.0361 57.875C79.4838 57.875 79.0361 57.4273 79.0361 56.875L80.0361 56.875L81.0361 56.875ZM79.0361 49.0133C79.0361 48.461 79.4838 48.0133 80.0361 48.0133C80.5884 48.0133 81.0361 48.461 81.0361 49.0133L80.0361 49.0133L79.0361 49.0133ZM80.0361 56.875L79.0361 56.875L79.0361 49.0133L80.0361 49.0133L81.0361 49.0133L81.0361 56.875L80.0361 56.875Z" fill="#F8F6F4" mask="url(#path-23-inside-2_9495_6942)"/>
<path d="M92.1758 49.8936C92.4793 49.7723 92.8262 49.8483 93.0518 50.085L109.084 66.9053C109.305 67.1369 109.366 67.4773 109.24 67.7715C109.114 68.0656 108.826 68.2566 108.506 68.2568L102.227 68.2607L105.237 74.6787C105.33 74.8774 105.338 75.1053 105.258 75.3096C105.178 75.514 105.017 75.6772 104.813 75.7598L101.989 76.9053C101.599 77.0634 101.153 76.8917 100.969 76.5127L97.668 69.7061L92.9883 73.6553C92.7504 73.8559 92.418 73.9006 92.1357 73.7695C91.8534 73.6384 91.6729 73.3552 91.6729 73.0439V50.6367C91.6729 50.3097 91.8721 50.0151 92.1758 49.8936Z" fill="white" stroke="#333336" stroke-width="1.6" stroke-linejoin="round"/>
</svg>

<svg xmlns="http://www.w3.org/2000/svg" width="134" height="80" fill="none" viewBox="0 0 134 80"><path fill="#f8f6f4" stroke="#333336" stroke-linejoin="round" stroke-width="1.6" d="m3.967 2.703-2.73 6.264A2.8 2.8 0 0 0 1 10.1v5.968L42.544 9.51l-2.967-6.806A2.84 2.84 0 0 0 36.977 1H6.567c-1.128 0-2.15.669-2.6 1.703Z"/><path fill="#f8f6f4" stroke="#333336" stroke-linecap="round" stroke-linejoin="round" stroke-width="1.6" d="M1 9.51h87.218a2.836 2.836 0 0 1 2.836 2.836v46.8a2.836 2.836 0 0 1-2.836 2.836H3.836A2.836 2.836 0 0 1 1 59.146z"/><rect width="53.182" height="6.027" x="9.154" y="18.695" fill="#00a6f9" rx=".805"/><rect width="73.745" height="6.027" x="9.154" y="28.055" fill="#00a6f9" rx=".805"/><rect width="73.745" height="6.027" x="9.154" y="37.412" fill="#00a6f9" rx=".805"/><rect width="24.818" height="6.027" x="9.154" y="46.77" fill="#00a6f9" rx=".805"/><path stroke="#333336" stroke-linejoin="round" stroke-width="1.6" d="m21.564 18.019 2.966-6.806a2.84 2.84 0 0 1 2.6-1.703h30.41c1.129 0 2.15.668 2.6 1.703l2.968 6.806"/><path fill="#f8f6f4" stroke="#333336" stroke-linecap="round" stroke-linejoin="round" stroke-width="1.6" d="M21.564 18.02h87.217a2.837 2.837 0 0 1 2.837 2.836v46.8a2.837 2.837 0 0 1-2.837 2.836H24.4a2.836 2.836 0 0 1-2.836-2.836z"/><rect width="53.182" height="6.027" x="29.718" y="27.203" fill="#ffb279" rx=".805"/><rect width="73.745" height="6.027" x="29.718" y="36.563" fill="#ffb279" rx=".805"/><rect width="73.745" height="6.027" x="29.718" y="45.92" fill="#ffb279" rx=".805"/><rect width="24.818" height="6.027" x="29.718" y="55.277" fill="#ffb279" rx=".805"/><path stroke="#333336" stroke-linejoin="round" stroke-width="1.6" d="m42.481 26.527 2.967-6.806a2.84 2.84 0 0 1 2.6-1.703h30.41c1.129 0 2.15.668 2.6 1.703l2.968 6.806"/><path fill="#f8f6f4" stroke="#333336" stroke-linecap="round" stroke-linejoin="round" stroke-width="1.6" d="M42.481 26.525H129.7a2.837 2.837 0 0 1 2.837 2.837v46.8a2.837 2.837 0 0 1-2.837 2.836H45.318a2.836 2.836 0 0 1-2.837-2.837z"/><rect width="53.182" height="6.027" x="50.636" y="35.713" fill="#e0e0e6" rx=".805"/><rect width="73.745" height="6.027" x="50.636" y="45.07" fill="#e0e0e6" rx=".805"/><rect width="73.745" height="6.027" x="50.636" y="54.428" fill="#e0e0e6" rx=".805"/><rect width="24.818" height="6.027" x="50.636" y="63.785" fill="#e0e0e6" rx=".805"/><rect width="38.103" height="19.439" x=".8" y="-.8" fill="#f8f6f4" stroke="#333336" stroke-width="1.6" rx="9.196" transform="matrix(1 0 0 -1 67.3 61.922)"/><rect width="15.61" height="14.931" fill="#00a6f9" rx="7.094" transform="matrix(1 0 0 -1 72.174 60.467)"/><mask id="a" fill="#fff"><path fill-rule="evenodd" d="M83.967 52.944h-7.862z" clip-rule="evenodd"/></mask><path fill="#00a6f9" fill-rule="evenodd" d="M83.967 52.944h-7.862z" clip-rule="evenodd"/><path fill="#f8f6f4" d="M83.967 51.944a1 1 0 1 1 0 2zm-7.862 2a1 1 0 1 1 0-2zm7.862-1v1h-7.862v-2h7.862z" mask="url(#a)"/><mask id="b" fill="#fff"><path fill-rule="evenodd" d="M80.036 56.875v-7.862z" clip-rule="evenodd"/></mask><path fill="#00a6f9" fill-rule="evenodd" d="M80.036 56.875v-7.862z" clip-rule="evenodd"/><path fill="#f8f6f4" d="M81.036 56.875a1 1 0 1 1-2 0zm-2-7.862a1 1 0 1 1 2 0zm1 7.862h-1v-7.862h2v7.862z" mask="url(#b)"/><path fill="#fff" stroke="#333336" stroke-linejoin="round" stroke-width="1.6" d="M92.176 49.894a.8.8 0 0 1 .876.191l16.032 16.82a.798.798 0 0 1-.578 1.352l-6.279.004 3.01 6.418a.8.8 0 0 1-.424 1.08l-2.824 1.146a.8.8 0 0 1-1.02-.392l-3.301-6.807-4.68 3.95a.8.8 0 0 1-1.315-.612V50.637a.8.8 0 0 1 .503-.743Z"/></svg>
